X: 752
T: Feng mianyi
%%abc-version 2.0
%%abcx-abcm2ps-target-version 5.9.1 (29 Sep 2008)
%%abc-creator hum2abc beta
%%abcx-conversion-date 2013/10/02 07:52:30
%%abc-edited-by Helmut Schaffrath
%%humdrum-veritas 436327663
%%humdrum-veritas-data 10534686
%%continueall 1
%%barnumbers 0
L: 1/8
M: 2/4
K: G
G G G F/ E/ [I:setbarnb 1]| 
D DD2 | 
A d c B/ A/ | 
G4 | 
A d c B/ d/ | 
A A A d | 
G F/ E/ D z | 
B A/ B/ D/ E/ D/ B,/ | 
D4 |]  



